X:1
T:The Mermaid (5)
M:4/4
L:1/4
K:C
 D/2D/2| F D F G| A3/2- G/2 F G/2G/2| A d(2A15.9999925000037/23.999988000006A15.9999925000037/23.999988000006B15.9999925000037/23.999988000006 c15.9999925000037/23.999988000006|\
 d3| A| d d c A| G/2 F3/2 D D/2D/2| F/2 G- F/2 D C| D4|
